Hatter-kde/emblems/16/emblem-important.svg

<?xml version="1.0" encoding="UTF-8"?>
<svg viewBox="0 0 16 16" xmlns="http://www.w3.org/2000/svg">
 <path d="m8 1a7 7 0 0 0-7 7 7 7 0 0 0 7 7 7 7 0 0 0 7-7 7 7 0 0 0-7-7z" fill="#da4453"/>
 <path d="m7 3v6h2v-6h-2zm0 8v2h2v-2h-2z" fill="#fff"/>
</svg>

<svg xmlns="http://www.w3.org/2000/svg" viewBox="0 0 16 16">
 <path 
     style="fill:#da4453;fill-opacity:1;stroke:none" 
     d="M 8 1 A 7 7 0 0 0 1 8 A 7 7 0 0 0 8 15 A 7 7 0 0 0 15 8 A 7 7 0 0 0 8 1 z "
     />
 <path 
     style="fill:#ffffff;fill-opacity:1;stroke:none" 
     d="M 7 3 L 7 9 L 9 9 L 9 3 L 7 3 z M 7 11 L 7 13 L 9 13 L 9 11 L 7 11 z "
     />
</svg>
